themes/ColwichTheme/static/images/icons/popcorn.svg

<svg viewBox="0 0 448 512" xmlns="http://www.w3.org/2000/svg"><path d="m0 188.5c0 2.329.2855 4.649.85 6.909l73.06 292.4c3.54 13.291 16.33 24.191 30.99 24.191l238.3-.0098c14.62-.0011 27.36-10.01 30.91-24.2l73.06-292.4c.53-2.1902.83-4.5902.83-6.8902 0-15.74-12.76-28.5-28.49-28.5h-391.02c-15.73 0-28.49 12.8-28.49 28.5zm145.1 275.4c-.6719.0782-1.344.125-2 .125-7.953 0-14.84-5.922-15.86-14.02l-27.14-224.905c-1.17-8.7 6.3-17.1 15-17.1 8.068 0 14.87 6.008 15.88 14.02l28 224c1.12 8.78-4.18 16.78-13.88 17.88zm78.9.1c-8.844 0-16-7.157-16-16v-224c0-8.836 7.163-15.99 15.1-15.99 9.7-.01 16.9 7.19 16.9 15.99v224c0 8.9-7.2 16-16 16zm95.9-14c-1.016 8.094-7.906 14.02-15.86 14.02-.6562 0-1.328-.0469-2-.125-8.766-1.094-14.98-9.094-13.89-17.86l28-224c1.001-8.007 7.807-14.02 15.88-14.02 9.623 0 17.07 8.435 15.88 17.98z"/><path d="m411.6 138.9c-7-11.88-19.38-19.63-33.13-20.75 6.5-11.75 6.375-25.88-.25-37.5-9.125-16-28-23.63-45.63-20.13-.25-16.63-11.5-32-29-37.5-13.25-4.25-27.88-1.875-39.13 6.5 0-.75-.25-1.375-.625-2-7.135-21.177-31.135-32.302-53.335-25.551-13 4-23.3 14.251-27.4 27.251-12-8.13-25.6-10.38-38.7-6.13-17.5 5.375-28.62 20.75-29 37.38-17.62-3.5-36.5 4.125-45.63 20.13-7.67 11.5-6.9 25.9-.27 37.5-14.4 1.3-26.38 8.6-33.13 20.8-3.87 6.7-4.75 14-4.25 20.2h383.8c.48-6.2-.42-13.5-4.32-20.2z" opacity=".4"/></svg>

<svg xmlns="http://www.w3.org/2000/svg" viewBox="0 0 448 512"><!--! Font Awesome Pro 6.1.1 by @fontawesome - https://fontawesome.com License - https://fontawesome.com/license (Commercial License) Copyright 2022 Fonticons, Inc. --><defs><style>.fa-secondary{opacity:.4}</style></defs><path class="fa-primary" d="M0 188.5c0 2.329 .2855 4.649 .85 6.909l73.06 292.4C77.45 501.1 90.24 512 104.9 512l238.3-.0098c14.62-.0011 27.36-10.01 30.91-24.2l73.06-292.4C447.7 193.2 448 190.8 448 188.5c0-15.74-12.76-28.5-28.49-28.5H28.49C12.76 160 0 172.8 0 188.5zM145.1 463.9c-.6719 .0782-1.344 .125-2 .125c-7.953 0-14.84-5.922-15.86-14.02L100.1 225.1C98.93 216.4 106.4 208 115.1 208c8.068 0 14.87 6.008 15.88 14.02l28 224C160.1 454.8 154.8 462.8 145.1 463.9zM224 464c-8.844 0-16-7.157-16-16V224c0-8.836 7.163-15.99 15.1-15.99C232.8 208 240 215.2 240 224v224C240 456.9 232.8 464 224 464zM319.9 450c-1.016 8.094-7.906 14.02-15.86 14.02c-.6562 0-1.328-.0469-2-.125c-8.766-1.094-14.98-9.094-13.89-17.86l28-224c1.001-8.007 7.807-14.02 15.88-14.02c9.623 0 17.07 8.435 15.88 17.98L319.9 450z"/><path class="fa-secondary" d="M411.6 138.9c-7-11.88-19.38-19.63-33.13-20.75c6.5-11.75 6.375-25.88-.25-37.5c-9.125-16-28-23.63-45.63-20.13c-.25-16.63-11.5-32-29-37.5c-13.25-4.25-27.88-1.875-39.13 6.5c0-.75-.25-1.375-.625-2C256.7 6.343 232.7-4.782 210.5 1.969C197.5 5.969 187.2 16.22 183.1 29.22C171.1 21.09 157.5 18.84 144.4 23.09c-17.5 5.375-28.62 20.75-29 37.38c-17.62-3.5-36.5 4.125-45.63 20.13C62.1 92.1 62.87 106.5 69.5 118.1C55.1 119.4 43.12 126.7 36.37 138.9C32.5 145.6 31.62 152.9 32.12 159.1h383.8C416.4 152.9 415.5 145.6 411.6 138.9z"/></svg>
